_inc/images/systems/logos/namco.svg

<svg viewBox="0 0 3839 491.2" xmlns="http://www.w3.org/2000/svg">
    <path class="st1" d="M0 .1v491h170.4V142.8h280.4v348.3h170.4V147c0-81.1-65.8-147-147-147H0v.1Zm699.2 0v122.2h484.7v52H846.2c-81.1 0-147 65.8-147 147v22.9c0 81.1 65.8 147 147 147h508.1V147c0-81.1-65.8-147-147-147H699.2v.1Zm170.5 368.8v-72.6H1184v72.6H869.7ZM1449.5.1v491h170.4V142.8h193.3v348.3h170.4V142.8H2177v348.3h170.4V147c0-81.1-65.8-147-147-147h-751v.1ZM2432.8 147v197c0 81.1 65.8 147 147 147H3047V348.3h-443.6V142.8H3047V.1h-467.1c-81.2 0-147.1 65.8-147.1 146.9Zm699.8 0v197c0 81.1 65.8 147 147 147H3692c81.1 0 147-65.8 147-147V147c0-81.1-65.8-147-147-147h-412.3c-81.2.1-147.1 65.9-147.1 147ZM3303 368.9V122.3h365.6V369H3303v-.1Z" style="fill:#fff"/>
</svg>

<?xml version="1.0" encoding="utf-8"?>
<svg version="1.1" viewBox="0 0 3839 491.2" xmlns="http://www.w3.org/2000/svg">
  <path class="st1" d="M 0 0.1 L 0 491.1 L 170.4 491.1 L 170.4 142.8 L 450.8 142.8 L 450.8 491.1 L 621.2 491.1 L 621.2 147 C 621.2 65.9 555.4 0 474.2 0 L 0 0 L 0 0.1 Z" style="fill: rgb(255, 255, 255);"/>
  <path class="st1" d="M 699.2 0.1 L 699.2 122.3 L 1183.9 122.3 L 1183.9 174.3 L 846.2 174.3 C 765.1 174.3 699.2 240.1 699.2 321.3 L 699.2 344.2 C 699.2 425.3 765 491.2 846.2 491.2 L 1354.3 491.2 L 1354.3 147 C 1354.3 65.9 1288.5 0 1207.3 0 L 699.2 0 L 699.2 0.1 Z M 869.7 368.9 L 869.7 296.3 L 1184 296.3 L 1184 368.9 L 869.7 368.9 Z" style="fill: rgb(255, 255, 255);"/>
  <path class="st1" d="M 1449.5 0.1 L 1449.5 491.1 L 1619.9 491.1 L 1619.9 142.8 L 1813.2 142.8 L 1813.2 491.1 L 1983.6 491.1 L 1983.6 142.8 L 2177 142.8 L 2177 491.1 L 2347.4 491.1 L 2347.4 147 C 2347.4 65.9 2281.6 0 2200.4 0 L 1449.4 0 L 1449.4 0.1 Z" style="fill: rgb(255, 255, 255);"/>
  <path class="st1" d="M 2432.8 147 L 2432.8 344 C 2432.8 425.1 2498.6 491 2579.8 491 L 3047 491 L 3047 348.3 L 2603.4 348.3 L 2603.4 142.8 L 3047 142.8 L 3047 0.1 L 2579.9 0.1 C 2498.7 0.1 2432.8 65.9 2432.8 147 Z" style="fill: rgb(255, 255, 255);"/>
  <path class="st1" d="M 3132.6 147 L 3132.6 344 C 3132.6 425.1 3198.4 491 3279.6 491 L 3692 491 C 3773.1 491 3839 425.2 3839 344 L 3839 147 C 3839 65.9 3773.2 0 3692 0 L 3279.7 0 C 3198.5 0.1 3132.6 65.9 3132.6 147 Z M 3303 368.9 L 3303 122.3 L 3668.6 122.3 L 3668.6 369 L 3303 369 L 3303 368.9 Z" style="fill: rgb(255, 255, 255);"/>
</svg>
